icons/pandas/pandas-original.svg

<svg xmlns="http://www.w3.org/2000/svg" viewBox="0 0 128 128"><path style="color:#000000;fill:#130754;stroke-width:0.508523;-inkscape-stroke:none" d="m 48.697029,15.176289 h 12.25033 v 25.436342 h -12.25033 z" id="rect8" /><path style="color:#000000;fill:#130754;stroke-width:0.508523;-inkscape-stroke:none" d="m 48.697029,67.427074 h 12.25033 v 25.436345 h -12.25033 z" id="rect10" /><path style="color:#000000;fill:#ffca00;stroke-width:0.508523;-inkscape-stroke:none" d="m 48.697029,48.037076 h 12.25033 v 12.001153 h -12.25033 z" id="rect12" /> <path style="color:#000000;fill:#130754;stroke-width:0.508523;-inkscape-stroke:none" d="M 29.017171,36.086775 H 41.267502 V 120.63896 H 29.017171 Z" id="rect14" /> <path style="color:#000000;fill:#130754;stroke-width:0.508523;-inkscape-stroke:none" d="M 67.970068,88.413838 H 80.220394 V 113.85018 H 67.970068 Z" id="rect16" /> <path style="color:#000000;fill:#130754;stroke-width:0.508523;-inkscape-stroke:none" d="M 67.970068,36.117285 H 80.220394 V 61.553629 H 67.970068 Z" id="rect18" /> <path style="color:#000000;fill:#e70488;stroke-width:0.508523;-inkscape-stroke:none" d="M 67.970068,68.983156 H 80.220394 V 80.984312 H 67.970068 Z" id="rect20" /> <path style="color:#000000;fill:#130754;stroke-width:0.508523;-inkscape-stroke:none" d="M 87.238019,8.5502295 H 99.488347 V 93.10242 H 87.238019 Z" id="rect22" /></svg>

<svg xmlns="http://www.w3.org/2000/svg" viewBox="0 0 128 128"><path style="color:#000;fill:#130754;stroke-width:.508523;-inkscape-stroke:none" d="M48.697 15.176h12.25v25.437h-12.25zm0 52.251h12.25v25.436h-12.25z"/><path style="color:#000;fill:#ffca00;stroke-width:.508523;-inkscape-stroke:none" d="M48.697 48.037h12.25v12.001h-12.25z"/><path style="color:#000;fill:#130754;stroke-width:.508523;-inkscape-stroke:none" d="M29.017 36.087h12.25v84.552h-12.25zM67.97 88.414h12.25v25.436H67.97zm0-52.297h12.25v25.437H67.97z"/><path style="color:#000;fill:#e70488;stroke-width:.508523;-inkscape-stroke:none" d="M67.97 68.983h12.25v12.001H67.97z"/><path style="color:#000;fill:#130754;stroke-width:.508523;-inkscape-stroke:none" d="M87.238 8.55h12.25v84.552h-12.25z"/></svg><svg xmlns="http://www.w3.org/2000/svg" viewBox="0 0 128 128"><path style="color:#000;fill:#130754;stroke-width:.508523;-inkscape-stroke:none" d="M48.697 15.176h12.25v25.437h-12.25zm0 52.251h12.25v25.436h-12.25z"/><path style="color:#000;fill:#ffca00;stroke-width:.508523;-inkscape-stroke:none" d="M48.697 48.037h12.25v12.001h-12.25z"/><path style="color:#000;fill:#130754;stroke-width:.508523;-inkscape-stroke:none" d="M29.017 36.087h12.25v84.552h-12.25zM67.97 88.414h12.25v25.436H67.97zm0-52.297h12.25v25.437H67.97z"/><path style="color:#000;fill:#e70488;stroke-width:.508523;-inkscape-stroke:none" d="M67.97 68.983h12.25v12.001H67.97z"/><path style="color:#000;fill:#130754;stroke-width:.508523;-inkscape-stroke:none" d="M87.238 8.55h12.25v84.552h-12.25z"/></svg><svg xmlns="http://www.w3.org/2000/svg" viewBox="0 0 128 128"><path style="color:#000;fill:#130754;stroke-width:.508523;-inkscape-stroke:none" d="M48.697 15.176h12.25v25.437h-12.25zm0 52.251h12.25v25.436h-12.25z"/><path style="color:#000;fill:#ffca00;stroke-width:.508523;-inkscape-stroke:none" d="M48.697 48.037h12.25v12.001h-12.25z"/><path style="color:#000;fill:#130754;stroke-width:.508523;-inkscape-stroke:none" d="M29.017 36.087h12.25v84.552h-12.25zM67.97 88.414h12.25v25.436H67.97zm0-52.297h12.25v25.437H67.97z"/><path style="color:#000;fill:#e70488;stroke-width:.508523;-inkscape-stroke:none" d="M67.97 68.983h12.25v12.001H67.97z"/><path style="color:#000;fill:#130754;stroke-width:.508523;-inkscape-stroke:none" d="M87.238 8.55h12.25v84.552h-12.25z"/></svg>
